hero/solid/arrow-down-left.svg

<svg width="24" height="24" viewBox="0 0 24 24" fill="none" xmlns="http://www.w3.org/2000/svg">
<path fill-rule="evenodd" clip-rule="evenodd" d="M20.0303 3.96967C20.3232 4.26256 20.3232 4.73744 20.0303 5.03033L6.31066 18.75L15.75 18.75C16.1642 18.75 16.5 19.0858 16.5 19.5C16.5 19.9142 16.1642 20.25 15.75 20.25L4.5 20.25C4.08579 20.25 3.75 19.9142 3.75 19.5L3.75 8.25C3.75 7.83579 4.08579 7.5 4.5 7.5C4.91421 7.5 5.25 7.83579 5.25 8.25L5.25 17.6893L18.9697 3.96967C19.2626 3.67678 19.7374 3.67678 20.0303 3.96967Z" fill="#0F172A"/>
</svg>

<svg viewBox="0 0 24 24" xmlns="http://www.w3.org/2000/svg"><path fill-rule="evenodd" d="M20.03 3.97V3.96c.29.29.29.76 0 1.06L6.31 18.74h9.44v0c.41 0 .75.33.75.75 0 .41-.34.75-.75.75H4.5v0c-.42 0-.75-.34-.75-.75V8.24v0c0-.42.33-.75.75-.75 .41 0 .75.33.75.75v9.44L18.97 3.96v0c.29-.3.76-.3 1.06-.001Z"/></svg>
